src/assets/img/sns_insta.svg

<svg width="32" height="32" viewBox="0 0 32 32" fill="none" xmlns="http://www.w3.org/2000/svg">
<path d="M31.9906 0H0.009375C0.00419733 0 0 0.00419733 0 0.009375V31.9906C0 31.9958 0.00419733 32 0.009375 32H31.9906C31.9958 32 32 31.9958 32 31.9906V0.009375C32 0.00419733 31.9958 0 31.9906 0Z" fill="#A7ABB6"/>
<path d="M20.5714 17.0268C20.5714 17.999 20.2765 18.9494 19.724 19.7578C19.1714 20.5662 18.3861 21.1963 17.4672 21.5683C16.5484 21.9404 15.5373 22.0377 14.5618 21.8481C13.5864 21.6584 12.6904 21.1902 11.9871 20.5027C11.2839 19.8152 10.8049 18.9393 10.6109 17.9858C10.4169 17.0322 10.5165 16.0438 10.8971 15.1456C11.2777 14.2474 11.9222 13.4796 12.7491 12.9395C13.5761 12.3993 14.5483 12.111 15.5429 12.111C16.8761 12.1125 18.1542 12.6309 19.0969 13.5525C20.0396 14.474 20.5699 15.7235 20.5714 17.0268ZM23.0857 17.0268C23.0857 15.5684 22.6433 14.1428 21.8145 12.9302C20.9857 11.7176 19.8077 10.7725 18.4294 10.2144C17.0511 9.65633 15.5345 9.51031 14.0713 9.79482C12.6082 10.0793 11.2641 10.7816 10.2093 11.8128C9.15437 12.844 8.43598 14.1579 8.14494 15.5882C7.85389 17.0186 8.00327 18.5012 8.57417 19.8485C9.14507 21.1959 10.1119 22.3475 11.3523 23.1577C12.5927 23.9679 14.051 24.4004 15.5429 24.4004C17.5427 24.3982 19.4599 23.6206 20.874 22.2383C22.288 20.8559 23.0835 18.9817 23.0857 17.0268ZM26.4 8.2438C26.4 7.87921 26.2894 7.5228 26.0822 7.21966C25.875 6.91651 25.5805 6.68024 25.2359 6.54071C24.8913 6.40119 24.5122 6.36468 24.1464 6.43581C23.7806 6.50694 23.4446 6.68251 23.1809 6.94031C22.9172 7.19812 22.7376 7.52658 22.6648 7.88417C22.592 8.24175 22.6294 8.6124 22.7721 8.94924C22.9148 9.28608 23.1565 9.57398 23.4666 9.77654C23.7767 9.97909 24.1413 10.0872 24.5143 10.0872C25.0144 10.0872 25.494 9.89299 25.8477 9.54728C26.2013 9.20158 26.4 8.7327 26.4 8.2438Z" fill="white" stroke="white" stroke-width="0.6"/>
</svg>

<svg width="32" height="32" fill="none" xmlns="http://www.w3.org/2000/svg"><path d="M32 0H0v32h32V0z" fill="#A7ABB6"/><path d="M20.6 17c0 1-.3 2-.9 2.8-.5.8-1.3 1.4-2.2 1.8-1 .4-2 .4-2.9.2-1-.1-1.9-.6-2.6-1.3-.7-.7-1.2-1.5-1.4-2.5-.2-1-.1-2 .3-2.9.4-.9 1.1-1.6 1.8-2.1.9-.6 1.8-.9 2.8-.9 1.4 0 2.7.5 3.6 1.5.9.9 1.5 2.1 1.5 3.4zm2.4 0c0-1.4-.4-2.9-1.2-4-.8-1.3-2-2.2-3.4-2.8-1.4-.5-2.9-.7-4.4-.4-1.4.2-2.7 1-3.8 2-1 1-1.8 2.4-2.1 3.8-.2 1.4-.1 2.9.5 4.2.5 1.4 1.5 2.5 2.8 3.4 1.2.8 2.6 1.2 4.1 1.2 2 0 4-.8 5.4-2.2C22.3 20.9 23 19 23 17zm3.4-8.8c0-.3-.1-.7-.4-1-.1-.2-.4-.5-.8-.7l-1.1-.1c-.3.1-.7.3-.9.6-.2.2-.5.5-.5.9-.1.3-.1.7.1 1.1l.7.8c.3.2.6.2 1 .2.5 0 1-.1 1.3-.5.4-.3.6-.8.6-1.3z" fill="#fff" stroke="#fff" stroke-width=".6"/></svg>
